X: 20422
Q: "With spirit."
M: 6/8
L: 1/8
K: D
f |\
{c}d2A AFA | {GA}B2A AFA | {Bc}d2A FGA | ECA, A,2 B/c/ |\
d2A AFA | {GA}B2A ABc | dgf eac | d3 d2 :|
f/g/ |\
afd dfa | gec ceg | fed {e}dcd |ecA A2f/g/ |\
afd dfa | gec ceg | fad egc | {c}d3 d2 ||
(f/g/) |\
afd dfa | gec ceg | fed {e}dcd | ecA A2G |\


